components/Common/Svg/svgs/theWeekPartner.svg

<svg
  width="285"
  height="37"
  viewBox="0 0 285 37"
  fill="none"
  xmlns="http://www.w3.org/2000/svg"
>
  <path
    fill-rule="evenodd"
    clip-rule="evenodd"
    d="M1.71736 9.22709H0.520996L0.703657 0.994629H34.9048L35.0874 9.22709H33.9697C33.5705 6.97236 33.0261 5.34303 32.3318 4.34145C31.6399 3.33987 30.8935 2.72506 30.0963 2.49817C29.2991 2.27011 27.9395 2.15608 26.0173 2.15608H20.3512V26.3268C20.3512 29.0036 20.4165 30.7634 20.5447 31.6051C20.6754 32.448 21.0262 33.0698 21.5996 33.4742C22.1693 33.8774 23.2447 34.0796 24.8209 34.0796H26.5362V35.2423H8.96694V34.0796H10.7875C12.2935 34.0796 13.3387 33.8951 13.9181 33.5248C14.5 33.1545 14.8714 32.5773 15.0347 31.7943C15.2016 31.0126 15.2826 29.1893 15.2826 26.3268V2.15608H10.0581C7.78872 2.15608 6.26453 2.26188 5.48671 2.47113C4.70526 2.68274 3.97341 3.31754 3.28873 4.37907C2.60405 5.43943 2.08027 7.05582 1.71736 9.22709Z"
    fill="white"
    fill-opacity="0.3"
  ></path>
  <path
    fill-rule="evenodd"
    clip-rule="evenodd"
    d="M66.8439 18.0685H48.4448V26.3268C48.4448 29.0212 48.515 30.7834 48.6529 31.618C48.7908 32.4515 49.1416 33.0698 49.7053 33.4742C50.2678 33.8774 51.3383 34.0796 52.9145 34.0796H53.823V35.2423H37.9727V34.0796H38.8811C40.3872 34.0796 41.4323 33.8951 42.0118 33.5248C42.5936 33.1545 42.965 32.5773 43.1295 31.7943C43.2952 31.0126 43.3763 29.1893 43.3763 26.3268V9.53038C43.3763 6.80425 43.2952 5.04444 43.1295 4.25211C42.965 3.46096 42.619 2.91432 42.0916 2.61103C41.563 2.30773 40.4053 2.15608 38.6198 2.15608H37.9727V0.994629H53.823V2.15608H53.1734C51.4605 2.15608 50.3331 2.29598 49.796 2.57223C49.2589 2.85084 48.9009 3.36926 48.7182 4.12633C48.5355 4.88456 48.4448 6.68552 48.4448 9.53038V16.3251H66.8439V9.53038C66.8439 6.80425 66.7677 5.04444 66.6105 4.25211C66.4568 3.46096 66.1121 2.91432 65.5847 2.61103C65.056 2.30773 63.8984 2.15608 62.1153 2.15608H61.1803V0.994629H77.2145V2.15608H76.6955C74.9633 2.15608 73.8262 2.29598 73.2915 2.57223C72.7544 2.85084 72.3939 3.36926 72.2113 4.12633C72.0286 4.88456 71.9379 6.68552 71.9379 9.53038V26.3268C71.9379 29.0212 72.0032 30.7834 72.1338 31.618C72.2633 32.4515 72.6153 33.0698 73.1863 33.4742C73.7584 33.8774 74.8314 34.0796 76.41 34.0796H77.2145V35.2423H61.1803V34.0796H62.4008C63.8923 34.0796 64.9254 33.8951 65.5073 33.5248C66.0867 33.1545 66.4568 32.5773 66.6105 31.7943C66.7677 31.0126 66.8439 29.1893 66.8439 26.3268V18.0685Z"
    fill="white"
    fill-opacity="0.3"
  ></path>
  <mask
    x="80"
    y="0"
    width="96"
    height="37"
  >
    <path
      fill-rule="evenodd"
      clip-rule="evenodd"
      d="M175.845 36.0052H80.6992L80.6992 0.994629H175.845V36.0052Z"
      fill="white"
    ></path>
  </mask>
  <path
    fill-rule="evenodd"
    clip-rule="evenodd"
    d="M109.391 24.5846H110.637L109.884 35.2423H80.6992V34.0796H81.4262C83.1742 34.0796 84.3065 33.8528 84.8182 33.399C85.3274 32.944 85.6528 32.3668 85.7932 31.6686C85.9311 30.9703 86.0012 29.1893 86.0012 26.3268V9.53038C86.0012 6.92181 85.9262 5.20432 85.7786 4.37907C85.6311 3.55383 85.2948 2.97663 84.7661 2.64864C84.2363 2.32066 83.1234 2.15608 81.4262 2.15608V0.994629H106.609L107.441 9.53038H106.218C105.664 7.14164 104.985 5.44413 104.18 4.44255C103.373 3.44097 102.415 2.80852 101.307 2.54755C100.199 2.28657 98.4137 2.15608 95.9544 2.15608H91.0685V16.5261H94.8113C96.5242 16.5261 97.7266 16.3851 98.4088 16.0971C99.0935 15.8126 99.5447 15.3788 99.7625 14.7969C99.9778 14.2162 100.085 13.0841 100.085 11.4007H101.307V23.1187H100.085C100.085 21.2166 99.9209 19.9412 99.5919 19.2922C99.2617 18.6445 98.7826 18.2237 98.1488 18.0297C97.5185 17.8369 96.448 17.7393 94.9395 17.7393H91.0685V25.846C91.0685 29.9052 91.3347 32.2916 91.873 33.0063C92.4101 33.7223 93.8581 34.0796 96.2133 34.0796H98.8395C100.693 34.0796 102.217 33.8492 103.413 33.3861C104.608 32.9229 105.747 31.9719 106.832 30.5318C107.913 29.0929 108.767 27.1097 109.391 24.5846Z"
    fill="white"
    fill-opacity="0.3"
  ></path>
  <path
    fill-rule="evenodd"
    clip-rule="evenodd"
    d="M162.302 36.0757H161.133L150.399 7.83875L141.019 36.0757H139.771L131.273 9.4046C130.51 6.97941 129.959 5.36772 129.623 4.56834C129.284 3.76895 128.841 3.17882 128.297 2.80029C127.75 2.42176 126.845 2.20663 125.581 2.15608V0.994629H138.809V2.15608C137.214 2.25718 136.194 2.48054 135.742 2.82615C135.291 3.17177 135.067 3.65492 135.067 4.27797C135.067 4.83284 135.431 6.25644 136.158 8.54644L142.446 28.4981L151.647 0.994629H153.104L163.447 28.4981L168.827 10.3145C169.537 7.85521 169.893 6.24821 169.893 5.49115C169.893 3.26816 168.67 2.15608 166.227 2.15608V0.994629H175.844V2.15608C174.423 2.25718 173.367 2.76738 172.672 3.68431C171.981 4.60243 171.104 6.80425 170.047 10.2886L162.302 36.0757Z"
    fill="white"
    fill-opacity="0.3"
  ></path>
  <path
    fill-rule="evenodd"
    clip-rule="evenodd"
    d="M206.408 24.5846H207.654L206.901 35.2423H177.715V34.0796H178.442C180.19 34.0796 181.323 33.8528 181.834 33.399C182.344 32.944 182.669 32.3668 182.809 31.6686C182.947 30.9703 183.017 29.1893 183.017 26.3268V9.53038C183.017 6.92181 182.942 5.20432 182.795 4.37907C182.647 3.55383 182.311 2.97663 181.782 2.64864C181.252 2.32066 180.14 2.15608 178.442 2.15608V0.994629H203.625L204.458 9.53038H203.235C202.682 7.14164 202.001 5.44413 201.196 4.44255C200.391 3.44097 199.431 2.80852 198.323 2.54755C197.215 2.28657 195.43 2.15608 192.971 2.15608H188.085V16.5261H191.827C193.541 16.5261 194.743 16.3851 195.425 16.0971C196.11 15.8126 196.561 15.3788 196.779 14.7969C196.994 14.2162 197.102 13.0841 197.102 11.4007H198.323V23.1187H197.102C197.102 21.2166 196.938 19.9412 196.608 19.2922C196.279 18.6445 195.799 18.2237 195.166 18.0297C194.535 17.8369 193.464 17.7393 191.956 17.7393H188.085V25.846C188.085 29.9052 188.352 32.2916 188.889 33.0063C189.427 33.7223 190.874 34.0796 193.231 34.0796H195.856C197.709 34.0796 199.233 33.8492 200.431 33.3861C201.625 32.9229 202.763 31.9719 203.848 30.5318C204.931 29.0929 205.783 27.1097 206.408 24.5846Z"
    fill="white"
    fill-opacity="0.3"
  ></path>
  <path
    fill-rule="evenodd"
    clip-rule="evenodd"
    d="M239.674 24.5846H240.92L240.168 35.2423H210.983V34.0796H211.71C213.458 34.0796 214.589 33.8528 215.102 33.399C215.611 32.944 215.935 32.3668 216.076 31.6686C216.214 30.9703 216.284 29.1893 216.284 26.3268V9.53038C216.284 6.92181 216.21 5.20432 216.062 4.37907C215.915 3.55383 215.578 2.97663 215.05 2.64864C214.519 2.32066 213.407 2.15608 211.71 2.15608V0.994629H236.893L237.725 9.53038H236.502C235.948 7.14164 235.268 5.44413 234.464 4.44255C233.657 3.44097 232.699 2.80852 231.591 2.54755C230.483 2.28657 228.697 2.15608 226.238 2.15608H221.352V16.5261H225.095C226.808 16.5261 228.01 16.3851 228.693 16.0971C229.377 15.8126 229.828 15.3788 230.046 14.7969C230.26 14.2162 230.368 13.0841 230.368 11.4007H231.591V23.1187H230.368C230.368 21.2166 230.205 19.9412 229.876 19.2922C229.545 18.6445 229.066 18.2237 228.432 18.0297C227.802 17.8369 226.73 17.7393 225.223 17.7393H221.352V25.846C221.352 29.9052 221.618 32.2916 222.157 33.0063C222.694 33.7223 224.141 34.0796 226.497 34.0796H229.122C230.976 34.0796 232.501 33.8492 233.697 33.3861C234.892 32.9229 236.03 31.9719 237.114 30.5318C238.197 29.0929 239.05 27.1097 239.674 24.5846Z"
    fill="white"
    fill-opacity="0.3"
  ></path>
  <path
    fill-rule="evenodd"
    clip-rule="evenodd"
    d="M254.722 18.4212L265.482 9.0002C267.976 6.82894 269.224 5.27955 269.224 4.35321C269.224 2.95664 267.976 2.22427 265.482 2.15608V0.994629H278.762V2.15608C277.67 2.17254 276.574 2.4006 275.476 2.83791C274.375 3.27522 273.365 3.84772 272.445 4.5554C271.527 5.26192 269.823 6.75253 267.326 9.02607L260.907 14.784L274.11 27.741C277.126 30.7211 279.143 32.5232 280.164 33.1451C281.189 33.7693 282.513 34.0796 284.14 34.0796V35.2423H265.847V34.0796H266.548C268.524 34.0796 269.753 33.9198 270.236 33.6012C270.723 33.2803 270.966 32.8853 270.966 32.4139C270.966 31.7062 269.708 30.1321 267.198 27.6905L257.245 17.9415L254.722 20.0893V26.3268C254.722 29.0212 254.793 30.7834 254.93 31.618C255.068 32.4515 255.418 33.0698 255.982 33.4742C256.545 33.8774 257.623 34.0796 259.218 34.0796H259.895V35.2423H244.066V34.0796H245.159C246.666 34.0796 247.709 33.8951 248.288 33.5248C248.871 33.1545 249.243 32.5773 249.408 31.7943C249.572 31.0126 249.654 29.1893 249.654 26.3268V9.53038C249.654 6.70316 249.563 4.90102 249.381 4.12633C249.2 3.35163 248.841 2.83086 248.303 2.56048C247.766 2.29127 246.51 2.15608 244.535 2.15608V0.994629H260.128V2.15608H259.479C257.744 2.15608 256.611 2.29598 256.072 2.57223C255.535 2.85084 255.177 3.36926 254.996 4.12633C254.813 4.88456 254.722 6.68552 254.722 9.53038V18.4212Z"
    fill="white"
    fill-opacity="0.3"
  ></path>
</svg>

<svg width="285" height="37" viewBox="0 0 285 37" fill="none" xmlns="http://www.w3.org/2000/svg"><path fill-rule="evenodd" clip-rule="evenodd" d="M1.717 9.227H.521L.704.995h34.2l.183 8.232H33.97c-.4-2.255-.944-3.884-1.638-4.886-.692-1.001-1.439-1.616-2.236-1.843-.797-.228-2.157-.342-4.079-.342h-5.666v24.17c0 2.678.066 4.437.194 5.28.13.842.481 1.464 1.055 1.868.57.403 1.645.606 3.22.606h1.716v1.162H8.966V34.08h1.822c1.505 0 2.55-.185 3.13-.555.582-.37.953-.948 1.117-1.73.167-.782.248-2.606.248-5.468V2.157h-5.225c-2.27 0-3.793.105-4.571.314-.782.212-1.514.847-2.198 1.908-.685 1.06-1.209 2.677-1.572 4.848ZM66.844 18.069h-18.4v8.258c0 2.694.071 4.456.209 5.291.138.834.489 1.452 1.052 1.856.563.403 1.633.606 3.21.606h.908v1.162h-15.85V34.08h.908c1.506 0 2.551-.185 3.13-.555.583-.37.954-.948 1.118-1.73.166-.782.247-2.606.247-5.468V9.53c0-2.726-.08-4.486-.246-5.278-.165-.791-.511-1.338-1.038-1.641-.529-.303-1.687-.455-3.472-.455h-.647V.995h15.85v1.161h-.65c-1.712 0-2.84.14-3.377.416-.537.279-.895.797-1.078 1.554-.183.759-.273 2.56-.273 5.404v6.795h18.399V9.53c0-2.726-.076-4.486-.233-5.278-.154-.791-.499-1.338-1.026-1.641-.529-.303-1.687-.455-3.47-.455h-.935V.995h16.035v1.161h-.52c-1.732 0-2.869.14-3.403.416-.538.279-.898.797-1.08 1.554-.183.759-.274 2.56-.274 5.404v16.797c0 2.694.065 4.456.196 5.291.13.834.481 1.452 1.052 1.856.572.403 1.645.606 3.224.606h.805v1.162H61.18V34.08h1.22c1.492 0 2.525-.185 3.107-.555.58-.37.95-.948 1.103-1.73.158-.782.234-2.606.234-5.468v-8.259ZM109.391 24.585h1.246l-.753 10.657H80.699V34.08h.727c1.748 0 2.88-.227 3.392-.681.51-.455.835-1.032.975-1.73.138-.699.208-2.48.208-5.342V9.53c0-2.608-.075-4.326-.222-5.15-.148-.826-.484-1.403-1.013-1.731-.53-.328-1.643-.493-3.34-.493V.995h25.183l.832 8.535h-1.223c-.554-2.388-1.233-4.086-2.038-5.087-.807-1.002-1.765-1.634-2.873-1.895-1.108-.261-2.893-.392-5.353-.392H91.07v14.37h3.742c1.713 0 2.916-.14 3.598-.429.684-.284 1.136-.718 1.353-1.3.216-.58.323-1.713.323-3.396h1.222v11.718h-1.222c0-1.902-.164-3.178-.493-3.827-.33-.648-.81-1.068-1.443-1.262-.63-.193-1.701-.29-3.21-.29h-3.87v8.106c0 4.06.266 6.446.804 7.16.537.716 1.985 1.074 4.34 1.074h2.627c1.853 0 3.377-.23 4.573-.694 1.195-.463 2.334-1.414 3.419-2.854 1.081-1.44 1.935-3.422 2.559-5.947ZM162.302 36.076h-1.169L150.399 7.839l-9.38 28.237h-1.248l-8.498-26.671c-.763-2.426-1.314-4.037-1.65-4.837-.339-.799-.782-1.39-1.326-1.768-.547-.378-1.452-.593-2.716-.644V.995h13.228v1.161c-1.595.101-2.615.325-3.067.67-.451.346-.675.829-.675 1.452 0 .555.364 1.978 1.091 4.268l6.288 19.952L151.647.995h1.457l10.343 27.503 5.38-18.183c.71-2.46 1.066-4.067 1.066-4.824 0-2.223-1.223-3.335-3.666-3.335V.995h9.617v1.161c-1.421.101-2.477.611-3.172 1.528-.691.918-1.568 3.12-2.625 6.605l-7.745 25.787ZM206.408 24.585h1.246l-.753 10.657h-29.186V34.08h.727c1.748 0 2.881-.227 3.392-.681a3.06 3.06 0 0 0 .975-1.73c.138-.699.208-2.48.208-5.342V9.53c0-2.608-.075-4.326-.222-5.15-.148-.826-.484-1.403-1.013-1.731-.53-.328-1.642-.493-3.34-.493V.995h25.183l.833 8.535h-1.223c-.553-2.388-1.234-4.086-2.039-5.087-.805-1.002-1.765-1.634-2.873-1.895-1.108-.261-2.893-.392-5.352-.392h-4.886v14.37h3.742c1.714 0 2.916-.14 3.598-.429.685-.284 1.136-.718 1.354-1.3.215-.58.323-1.713.323-3.396h1.221v11.718h-1.221c0-1.902-.164-3.178-.494-3.827-.329-.648-.809-1.068-1.442-1.262-.631-.193-1.702-.29-3.21-.29h-3.871v8.106c0 4.06.267 6.446.804 7.16.538.716 1.985 1.074 4.342 1.074h2.625c1.853 0 3.377-.23 4.575-.694 1.194-.463 2.332-1.414 3.417-2.854 1.083-1.44 1.935-3.422 2.56-5.947ZM239.674 24.585h1.246l-.752 10.657h-29.185V34.08h.727c1.748 0 2.879-.227 3.392-.681a3.07 3.07 0 0 0 .974-1.73c.138-.699.208-2.48.208-5.342V9.53c0-2.608-.074-4.326-.222-5.15-.147-.826-.484-1.403-1.012-1.731-.531-.328-1.643-.493-3.34-.493V.995h25.183l.832 8.535h-1.223c-.554-2.388-1.234-4.086-2.038-5.087-.807-1.002-1.765-1.634-2.873-1.895-1.108-.261-2.894-.392-5.353-.392h-4.886v14.37h3.743c1.713 0 2.915-.14 3.598-.429.684-.284 1.135-.718 1.353-1.3.214-.58.322-1.713.322-3.396h1.223v11.718h-1.223c0-1.902-.163-3.178-.492-3.827-.331-.648-.81-1.068-1.444-1.262-.63-.193-1.702-.29-3.209-.29h-3.871v8.106c0 4.06.266 6.446.805 7.16.537.716 1.984 1.074 4.34 1.074h2.625c1.854 0 3.379-.23 4.575-.694 1.195-.463 2.333-1.414 3.417-2.854 1.083-1.44 1.936-3.422 2.56-5.947ZM254.722 18.421l10.76-9.42c2.494-2.172 3.742-3.721 3.742-4.648 0-1.396-1.248-2.129-3.742-2.197V.995h13.28v1.161c-1.092.017-2.188.245-3.286.682a12.529 12.529 0 0 0-3.031 1.717c-.918.707-2.622 2.198-5.119 4.471l-6.419 5.758 13.203 12.957c3.016 2.98 5.033 4.782 6.054 5.404 1.025.624 2.349.935 3.976.935v1.162h-18.293V34.08h.701c1.976 0 3.205-.16 3.688-.479.487-.32.73-.716.73-1.187 0-.708-1.258-2.282-3.768-4.724l-9.953-9.748-2.523 2.147v6.238c0 2.694.071 4.456.208 5.291.138.834.488 1.452 1.052 1.856.563.403 1.641.606 3.236.606h.677v1.162h-15.829V34.08h1.093c1.507 0 2.55-.185 3.129-.555.583-.37.955-.948 1.12-1.73.164-.782.246-2.606.246-5.468V9.53c0-2.827-.091-4.629-.273-5.404-.181-.774-.54-1.295-1.078-1.566-.537-.269-1.793-.404-3.768-.404V.995h15.593v1.161h-.649c-1.735 0-2.868.14-3.407.416-.537.279-.895.797-1.076 1.554-.183.759-.274 2.56-.274 5.404v8.891Z" fill="#fff" fill-opacity=".3"/></svg>
